X:1604
T:Lady Harriet Hope's Reel
P:Lady Harriet Hope's Reel
C:R. Mackintosh
R:Reel (8x32)
B:RSCDS 16-4
Z:Anselm Lingnau <anselm@strathspey.org>
M:2/2
L:1/8
K:Bb
f|"Bb"b2fd "Eb"gedc|"Bb"f2dB "F"AcAF|"Bb"b2fd "Eb"gedc|"Bb"df"F"Ac "Bb"dBBf|
  "Bb"b2fd "Eb"gedc|"Bb"f2dB "F"AcAF|"Bb"b2fd "Eb"gedc|"Bb"df"F"Ac "Bb"dBB||
F|"Bb"DFBF "C7"EGcB|"F7"Acfe "Bb"dbfd|DFBF "C7"EGcB|"F7"AcFe "B"dBBF|
  "Bb"DFBF "C7"EGcB|"F7"Acfe "Bb"dfbf|"Eb"gedc "Bb"fdcB|"F7"AB/c/ Fe "Bb"dBB|]
